X:1
T: The Hopping Ground
N:
C:Bruce Shawyer
S:adapted from "The Hop Ground"
A:
O:
R:
M:6/8
K:D
I:speed 150
%W: A1
% voice 1 (1 lines, 36 notes)
K:D
M:6/8
L:1/16
A4 d2 f4 d2 g4 e2 f4 d2 A4 d2 f4 d2 g4 e2 c2 d2 B2 |A4 d2 f4 d2 g4 e2 f4 d2 f2 g2 a2 g2 f2 e2 f4 d2 c2 d2 B2 |
%W: A2
% voice 1 (1 lines, 36 notes)
A4 d2 f4 d2 g4 e2 f4 d2 A4 d2 f4 d2 g4 e2 c2 d2 B2 |A4 d2 f4 d2 g4 e2 f4 d2 f2 g2 a2 g2 f2 e2 f4 d2 c2 d2 B2 |
%W: B1
% voice 1 (1 lines, 40 notes)
A4 F2 B2 c2 d2 A4 d2 B4 d2 A4 F2 B2 c2 d2 e2 f2 g2 f2 e2 d2 |A4 F2 B2 c2 d2 A4 d2 B4 d2 f2 g2 a2 g2 f2 e2 f4 d2 c2 d2 B2 |
%W: B2                                                                                                      Last time
% voice 1 (1 lines, 41 notes)
A4 F2 B2 c2 d2 A4 d2 B4 d2 A4 F2 B2 c2 d2 e2 f2 g2 f2 e2 d2 |A4 F2 B2 c2 d2 A4 d2 B4 d2 f2 g2 a2 g2 f2 e2 f4 d2 c2 d2 B2 ||d12 |
